X:1
T:Barkingside, LMD
T:Barkingside, LMD
T:James David Vaughan, 1922
T:Public Domain Courtesy of the Cyber Hymnal™
C:James David Vaughan, 1922
Z:Public Domain
Z:Courtesy of the Cyber Hymnal™
%%score ( 1 2 ) 3
L:1/8
Q:1/4=105
M:4/4
K:Ab
V:1 treble 
V:2 treble 
V:3 bass 
V:1
 [CE]2 | [EA]3 [DF] [CE][CE][DF][CE] | [EA]6 [EA]2 | [Ec]3 [Ec] [Ac]A[GB][Ac] | [GB]6 [DE]2 | %5
 [CA]3 [DF] [CE][CE][DF][CE] | [EA]6 [EA]2 | [Ac]3 [Ac] [Ac]A[GB][GB] | [EA]6 [Ac]2 | %9
 [Ae]3 [Af] [Ae][Ac][EB][EA] | e6 [Ac]2 | [Ae]3 [Ac] [EA]A[GB][Ac] | B4- [GB]EFE | z [EA]AB A x3 | %14
 z [Ac]2 [Ac]2 x3 | [Ae]3 [Ac] [Ac]A[GB][GB] | [EA]6 |] %17
V:2
 x2 | x8 | x8 | x8 | x8 | x8 | x8 | x8 | x8 | x8 | (AAGG A2) x2 | x8 | G G A A x4 | A4- E E E x | %14
 c4- EEA x | x8 | x6 |] %17
V:3
 [A,,A,]2 | [A,,C]3 [A,,A,] [A,,A,][A,,A,][A,,A,][A,,A,] | [A,,C]6 [A,C]2 | %3
 A,3 [A,C] [A,E][CE][B,E][A,E] | [E,E]6 [E,G,]2 | [A,,A,]3 [A,,A,] [A,,A,][A,,A,][A,,A,][A,,A,] | %6
 [A,,C]6 [A,C]2 | [A,E]3 [A,E] [F,F][F,C][E,D][E,D] | [A,,C]6 [A,E]2 | %9
 [A,C]3 [A,D] [A,C][A,E][A,D][A,C] | [A,C][A,C][E,B,][E,B,] [A,C]2 [A,E]2 | %11
 [A,C]3 [A,E] [A,C][CE][B,E][A,E] | [E,E][E,E][F,=D][F,D] [E,E] z z2 | %13
 z [A,,C][A,,C][A,,C] [A,,C] z z2 | z [A,,A,][C,A,][E,C] [A,E]2 [A,E]2 | %15
 [A,C]3 [A,E] [F,F][F,C][E,D][E,D] | [A,,C]6 |] %17

